assets/svg/filters.svg

<?xml version="1.0" encoding="UTF-8"?>
<svg width="50px" height="50px" viewBox="0 0 50 50" version="1.1" xmlns="http://www.w3.org/2000/svg" xmlns:xlink="http://www.w3.org/1999/xlink">
    <!-- Generator: Sketch 49.2 (51160) - http://www.bohemiancoding.com/sketch -->
    <title>Icons/Interface/Filtres</title>
    <desc>Created with Sketch.</desc>
    <defs>
        <path d="M10.6121134,42.1551522 C10.6121134,40.1645199 12.1198454,38.6422717 14.0914948,38.6422717 C16.0631443,38.6422717 17.5708763,40.1645199 17.5708763,42.1551522 C17.5708763,44.1451991 15.9471649,45.6680328 14.0914948,45.6680328 C12.2358247,45.6680328 10.6121134,44.1451991 10.6121134,42.1551522 Z M21.4561856,39.9888759 C20.5283505,36.7101874 17.5708763,34.309719 14.0914948,34.309719 C10.6121134,34.309719 7.65463918,36.7101874 6.72680412,39.9888759 L2.14561856,39.9888759 C0.985824742,39.9888759 0,40.9250585 0,42.1551522 C0,43.3846604 0.927835052,44.3214286 2.14561856,44.3214286 L6.72680412,44.3214286 C7.65463918,47.6001171 10.6121134,50 14.0914948,50 C17.5708763,50 20.5283505,47.6001171 21.4561856,44.3214286 L47.8543814,44.3214286 C49.0141753,44.3214286 50,43.3846604 50,42.1551522 C50,40.9250585 49.0721649,39.9888759 47.8543814,39.9888759 L21.4561856,39.9888759 Z M17.5708763,7.84601874 C17.5708763,9.83665105 16.0631443,11.3588993 14.0914948,11.3588993 C12.1198454,11.3588993 10.6121134,9.71955504 10.6121134,7.84601874 C10.6121134,5.97248244 12.2358247,4.33313817 14.0914948,4.33313817 C15.9471649,4.33313817 17.5708763,5.85538642 17.5708763,7.84601874 Z M6.72680412,10.0122951 C7.65463918,13.2909836 10.6121134,15.691452 14.0914948,15.691452 C17.5708763,15.691452 20.5283505,13.2909836 21.4561856,10.0122951 L47.8543814,10.0122951 C49.0141753,10.0122951 50,9.07552693 50,7.84601874 C50,6.61651054 49.0721649,5.67974239 47.8543814,5.67974239 L21.4561856,5.67974239 C20.5283505,2.40105386 17.5708763,0.000585480094 14.0914948,0.000585480094 C10.6121134,0.000585480094 7.65463918,2.40105386 6.72680412,5.67974239 L2.14561856,5.67974239 C0.985824742,5.67974239 0,6.61651054 0,7.84601874 C0,9.07552693 0.927835052,10.0122951 2.14561856,10.0122951 L6.72680412,10.0122951 Z M32.6030928,25.0005855 C32.6030928,23.0099532 34.1108247,21.4877049 36.0824742,21.4877049 C38.0541237,21.4877049 39.5618557,23.0099532 39.5618557,25.0005855 C39.5618557,26.9912178 37.9381443,28.513466 36.0824742,28.513466 C34.2268041,28.513466 32.6030928,26.9912178 32.6030928,25.0005855 Z M43.4345804,22.8343091 C42.5067453,19.5556206 39.5492711,17.1551522 36.0698897,17.1551522 C32.5905082,17.1551522 29.633034,19.6141686 28.6472092,22.8343091 L2.14561856,22.8343091 C0.985824742,22.8343091 0,23.7710773 0,25.0005855 C0,26.1715457 0.927835052,27.1668618 2.14561856,27.1668618 L28.6472092,27.1668618 C29.5750443,30.4455504 32.5325185,32.8460187 36.0119,32.8460187 C39.4912814,32.8460187 42.4487556,30.4455504 43.3765907,27.1668618 L47.8543814,27.1662763 C49.0141753,27.1662763 50,26.2295082 50,25 C50.0579897,23.8290398 49.1301546,22.8337237 47.9123711,22.8337237 L43.4345804,22.8343091 Z" id="path-1"></path>
    </defs>
    <g id="Icons/Interface/Filtres" stroke="none" stroke-width="1" fill="none" fill-rule="evenodd">
        <mask id="mask-2" fill="white">
            <use xlink:href="#path-1"></use>
        </mask>
        <use id="Page-1" fill="#0088CE" xlink:href="#path-1"></use>
    </g>
</svg>

<svg width="50" height="50" xmlns="http://www.w3.org/2000/svg" xmlns:xlink="http://www.w3.org/1999/xlink"><defs><path d="M10.612 42.155c0-1.99 1.508-3.513 3.48-3.513 1.971 0 3.479 1.523 3.479 3.513a3.506 3.506 0 01-3.48 3.513 3.506 3.506 0 01-3.479-3.513zm10.844-2.166c-.928-3.279-3.885-5.68-7.365-5.68-3.479 0-6.436 2.401-7.364 5.68H2.146A2.15 2.15 0 000 42.155c0 1.23.928 2.166 2.146 2.166h4.58C7.656 47.601 10.613 50 14.092 50c3.48 0 6.437-2.4 7.365-5.679h26.398A2.15 2.15 0 0050 42.155c0-1.23-.928-2.166-2.146-2.166H21.456zM17.571 7.846c0 1.99-1.508 3.513-3.48 3.513-1.971 0-3.479-1.64-3.479-3.513 0-1.874 1.624-3.513 3.48-3.513a3.506 3.506 0 013.479 3.513zM6.727 10.012c.928 3.279 3.885 5.68 7.364 5.68 3.48 0 6.437-2.401 7.365-5.68h26.398A2.15 2.15 0 0050 7.846c0-1.23-.928-2.166-2.146-2.166H21.456C20.528 2.4 17.571 0 14.091 0c-3.479 0-6.436 2.401-7.364 5.68H2.146A2.15 2.15 0 000 7.846c0 1.23.928 2.166 2.146 2.166h4.58zm25.876 14.989c0-1.991 1.508-3.513 3.48-3.513 1.971 0 3.479 1.522 3.479 3.513a3.506 3.506 0 01-3.48 3.512 3.506 3.506 0 01-3.479-3.512zm10.832-2.167c-.928-3.278-3.886-5.679-7.365-5.679-3.48 0-6.437 2.46-7.423 5.68H2.146A2.15 2.15 0 000 25c0 1.17.928 2.166 2.146 2.166h26.501c.928 3.279 3.886 5.679 7.365 5.679 3.48 0 6.437-2.4 7.365-5.68h4.477A2.15 2.15 0 0050 25a2.067 2.067 0 00-2.088-2.166h-4.477z" id="a"/></defs><use fill="#0088CE" xlink:href="#a" fill-rule="evenodd"/></svg>
